X: 1
T: Beauty Spot, The
M: C|
L: 1/8
R: reel
D: Maeve Donnelly: Maeve Donnelly
Z: Dow
K: Edor
B3A B2ed|B2AF DEFA|~B3A ~B2ed|BdAD FEFA|
~B3A B2ed|B2AF DEFA|~B3d ~c3e|dBAD FEFA||
fede fe~e2|fade fbba|fede fe~e2|ABde fe~e2|
fede fe~e2|fade fbba|~f3d efed|ABde fded||
